common/svg/message-icon.svg

<svg fill="none" height="20" viewBox="0 0 20 20" width="20" xmlns="http://www.w3.org/2000/svg"><path clip-rule="evenodd" d="m0 1.66667c0-.920477.746192-1.66667 1.66667-1.66667h16.66663c.9205 0 1.6667.746192 1.6667 1.66667v13.33333c0 .9205-.7462 1.6667-1.6667 1.6667h-8.8351c-.29509 0-.58489.0783-.83979.227l-5.32508 3.1063v-2.5c0-.4602-.37309-.8333-.83333-.8333h-.83333c-.920478 0-1.66667-.7462-1.66667-1.6667zm5 8.33333c.92047 0 1.66667-.74619 1.66667-1.66667 0-.92047-.7462-1.66666-1.66667-1.66666s-1.66667.74619-1.66667 1.66666c0 .92048.7462 1.66667 1.66667 1.66667zm6.6667-1.66667c0 .92048-.7462 1.66667-1.6667 1.66667-.92048 0-1.66667-.74619-1.66667-1.66667 0-.92047.74619-1.66666 1.66667-1.66666.9205 0 1.6667.74619 1.6667 1.66666zm3.3333 1.66667c.9205 0 1.6667-.74619 1.6667-1.66667 0-.92047-.7462-1.66666-1.6667-1.66666s-1.6667.74619-1.6667 1.66666c0 .92048.7462 1.66667 1.6667 1.66667z" fill="#000" fill-rule="evenodd"/></svg>

<svg width="20" height="20" viewBox="0 0 20 20" fill="none" xmlns="http://www.w3.org/2000/svg">
<path fill-rule="evenodd" clip-rule="evenodd" d="M0 1.66667C0 0.746193 0.746192 0 1.66667 0H18.3333C19.2538 0 20 0.746192 20 1.66667V15C20 15.9205 19.2538 16.6667 18.3333 16.6667H9.4982C9.20311 16.6667 8.91331 16.745 8.65841 16.8937L3.33333 20V17.5C3.33333 17.0398 2.96024 16.6667 2.5 16.6667H1.66667C0.746192 16.6667 0 15.9205 0 15V1.66667ZM5 10C5.92047 10 6.66667 9.25381 6.66667 8.33333C6.66667 7.41286 5.92047 6.66667 5 6.66667C4.07953 6.66667 3.33333 7.41286 3.33333 8.33333C3.33333 9.25381 4.07953 10 5 10ZM11.6667 8.33333C11.6667 9.25381 10.9205 10 10 10C9.07952 10 8.33333 9.25381 8.33333 8.33333C8.33333 7.41286 9.07952 6.66667 10 6.66667C10.9205 6.66667 11.6667 7.41286 11.6667 8.33333ZM15 10C15.9205 10 16.6667 9.25381 16.6667 8.33333C16.6667 7.41286 15.9205 6.66667 15 6.66667C14.0795 6.66667 13.3333 7.41286 13.3333 8.33333C13.3333 9.25381 14.0795 10 15 10Z" fill="black"/>
</svg>
